202404-ahaslides-april/assets/images/peo-2.svg

<svg width="244" height="150" viewBox="0 0 244 150" fill="none" xmlns="http://www.w3.org/2000/svg">
<rect width="199" height="150" fill="#89EDA3"/>
<mask id="mask0_459_2111" style="mask-type:alpha" maskUnits="userSpaceOnUse" x="34" y="21" width="210" height="129">
<path d="M244 21H34.4287V149.023H244V21Z" fill="#F4E7D0"/>
</mask>
<g mask="url(#mask0_459_2111)">
<path d="M216.142 132.843C216.142 132.843 226.289 116.957 222.613 111.06C222.139 110.565 221.61 110.126 221.035 109.753C220.305 109.299 219.731 108.635 219.389 107.847C219.039 107.035 218.509 106.179 217.788 105.998C215.082 105.288 214.721 103.044 212.838 103.044C211.305 103.044 219.321 87.0231 215.781 86.3128C212.241 85.6025 205.995 101.748 205.995 101.748C205.995 101.748 202.871 107.114 199.692 109.64C194.912 113.36 192.792 125.424 192.792 125.424L200.335 135.695L216.142 132.843Z" fill="#FFB7A4"/>
<path d="M215.792 121.544C218.114 121.544 221.271 117.35 221.914 116.46C221.978 116.352 221.999 116.224 221.974 116.101C221.949 115.978 221.879 115.869 221.779 115.794C221.67 115.718 221.537 115.688 221.406 115.709C221.276 115.73 221.158 115.801 221.08 115.907C219.535 118.049 216.795 120.913 215.566 120.563C215.07 120.417 214.732 119.616 214.642 118.309C214.636 118.243 214.618 118.18 214.587 118.122C214.557 118.064 214.515 118.012 214.465 117.97C214.415 117.928 214.357 117.897 214.294 117.878C214.232 117.858 214.166 117.851 214.101 117.858C214.036 117.862 213.973 117.879 213.915 117.908C213.857 117.937 213.805 117.978 213.763 118.027C213.721 118.077 213.689 118.134 213.67 118.196C213.65 118.258 213.643 118.323 213.65 118.388C213.785 120.225 214.326 121.251 215.296 121.533C215.46 121.557 215.627 121.56 215.792 121.544Z" fill="#BF643A"/>
<path d="M211.473 120.305C213.638 120.305 216.31 116.787 219.14 113.078C219.217 112.971 219.25 112.838 219.231 112.708C219.212 112.577 219.143 112.459 219.038 112.379C218.987 112.339 218.929 112.309 218.867 112.292C218.805 112.275 218.739 112.271 218.675 112.279C218.611 112.288 218.55 112.309 218.494 112.341C218.438 112.374 218.389 112.417 218.35 112.469C215.859 115.75 213.018 119.459 211.394 119.301C211.219 119.278 211.055 119.204 210.923 119.088C210.79 118.971 210.695 118.818 210.65 118.648C210.21 117.52 210.515 114.521 214.359 110.316C214.437 110.217 214.474 110.093 214.464 109.967C214.453 109.842 214.396 109.726 214.303 109.641C214.21 109.557 214.088 109.511 213.963 109.513C213.837 109.514 213.717 109.564 213.626 109.65C209.725 113.912 209.117 117.351 209.714 119.008C209.828 119.351 210.036 119.653 210.316 119.881C210.596 120.109 210.934 120.252 211.293 120.294L211.473 120.305Z" fill="#BF643A"/>
<path d="M206.321 119.28C207.381 119.28 208.181 118.446 209.624 116.946L210.323 116.213C210.416 116.12 210.467 115.995 210.467 115.864C210.467 115.733 210.416 115.607 210.323 115.514C210.229 115.421 210.101 115.369 209.968 115.369C209.836 115.369 209.708 115.421 209.613 115.514L208.903 116.247C207.167 118.062 206.716 118.502 205.836 118.186C205.762 118.143 205.699 118.085 205.65 118.015C205.602 117.944 205.569 117.865 205.554 117.78C205.193 116.653 205.701 112.808 210.278 106.698C210.318 106.645 210.347 106.585 210.363 106.522C210.38 106.458 210.383 106.392 210.374 106.327C210.364 106.262 210.342 106.199 210.308 106.143C210.274 106.087 210.23 106.037 210.177 105.999C210.072 105.922 209.941 105.89 209.812 105.909C209.684 105.928 209.568 105.996 209.489 106.1C204.979 112.109 204.055 116.315 204.607 118.085C204.663 118.319 204.776 118.536 204.935 118.717C205.094 118.898 205.295 119.037 205.52 119.122C205.776 119.22 206.047 119.273 206.321 119.28Z" fill="#BF643A"/>
<path d="M202.984 106.392C202.172 103.01 201.248 96.4929 200.436 93.1556C200.233 92.3326 199.917 91.3742 199.117 91.1262C198.782 91.0549 198.433 91.0905 198.119 91.2281C197.806 91.3656 197.543 91.5981 197.369 91.8928C197.022 92.4906 196.807 93.1556 196.738 93.8434C195.61 100.755 195.125 110.902 194.765 117.881L202.984 106.392Z" fill="#FFB7A4"/>
<path d="M51.9496 232.115L43.8545 158.955C51.4085 138.401 52.7839 123.733 70.9134 115.615C82.966 110.203 92.7974 110.429 96.2925 109.369L107.274 108.794C107.747 108.422 120.961 113.304 133.307 118.028L134.525 118.524C149.339 124.759 152.767 134.015 152.451 150.78L150.422 232.036L51.9496 232.115Z" fill="#FC9B02"/>
<path d="M143.984 113.36C160.975 119.639 175.666 153.948 175.666 153.948L193.401 120.699L216.288 132.887C216.288 132.887 195.667 183.758 192.217 187.681C184.764 196.149 173.05 196.701 163.444 191.718C152.305 185.956 148.787 175.854 144.277 165.02C136.87 147.443 126.182 130.88 118.763 113.314C118.65 113.055 120.105 109.21 119.992 108.951C128.182 109.043 136.297 110.534 143.984 113.36Z" fill="#FC9B02"/>
<path d="M67.5537 142.518L70.8684 223.604C69.6733 224.168 69.8988 224.382 70.1581 224.382C70.2233 224.379 70.2873 224.364 70.3463 224.336C70.4054 224.308 70.4585 224.269 70.5025 224.221C70.5465 224.173 70.5805 224.117 70.6027 224.055C70.6248 223.994 70.6347 223.929 70.6317 223.864" stroke="#282E3E" stroke-width="1.48637" stroke-miterlimit="10"/>
<path d="M148.81 146.553L148.246 172.067" stroke="#282E3E" stroke-width="1.48637" stroke-miterlimit="10"/>
<path d="M123.295 85.7045L121.626 107.408C121.626 107.69 121.626 107.949 121.536 108.209C121.1 111.338 119.487 114.183 117.025 116.163C114.563 118.143 111.438 119.109 108.288 118.863L105.864 118.671C104.231 118.556 102.637 118.118 101.174 117.383C99.7103 116.649 98.407 115.631 97.3389 114.39C96.2708 113.149 95.459 111.709 94.9504 110.153C94.4418 108.596 94.2464 106.955 94.3755 105.322L96.0442 83.6074L123.295 85.7045Z" fill="#FFB7A4"/>
<path d="M123.07 88.8371L121.616 107.294C121.616 107.53 118.775 108.421 115.528 107.722C106.339 105.602 100.679 96.6165 101.355 87.1685L123.07 88.8371Z" fill="#282E3E"/>
<path d="M121.83 102.965C107.173 103.72 88.9647 92.7614 86.1799 78.3412C84.8184 71.8132 85.9883 65.0118 89.4527 59.3138C92.917 53.6159 98.4171 49.4473 104.839 47.6518C123.623 42.24 127.309 55.0254 132.89 67.3372C133.364 68.397 133.86 69.4455 134.379 70.4828C135.899 73.4813 137.035 76.6595 137.761 79.9422C140.602 93.1673 133.837 102.345 121.83 102.965Z" fill="#FFB7A4"/>
<path d="M129.608 42.0374C130.217 40.7909 130.533 39.4221 130.533 38.035C130.536 35.8964 129.798 33.8229 128.443 32.1684C127.088 30.5139 125.201 29.381 123.103 28.9632C121.006 28.5453 118.829 28.8684 116.943 29.8772C115.057 30.886 113.58 32.5181 112.764 34.4948L111.31 33.8747C100.475 29.7031 85.5022 29.5791 80.733 43.21C79.0486 43.4563 77.509 44.3003 76.3954 45.5878C75.2817 46.8753 74.6684 48.5205 74.6673 50.2228C74.6505 50.4931 74.6505 50.7642 74.6673 51.0345C72.9167 51.8419 71.4361 53.1369 70.4029 54.7644C69.3697 56.3919 68.8278 58.2829 68.8421 60.2106C68.8564 62.1383 69.4262 64.021 70.4834 65.6331C71.5406 67.2451 73.0403 68.5181 74.8026 69.2994C74.0799 70.3677 73.6617 71.6128 73.593 72.9008C73.5243 74.1889 73.8076 75.4714 74.4125 76.6106C75.0175 77.7498 75.9213 78.7028 77.0268 79.3673C78.1324 80.0317 79.398 80.3826 80.6879 80.3822H81.0262C81.4772 81.0813 81.9507 81.7803 82.4242 82.4793L89.3919 81.9607C88.6252 70.9003 89.8203 60.9111 98.5243 55.0596C98.5243 55.0596 108.818 64.2371 118.424 54.9243C120.814 57.089 126.068 55.8601 127.049 54.1351C129.879 54.214 133.498 46.8968 129.608 42.0374Z" fill="#713D2F"/>
<path d="M106.958 92.9536C110.956 92.9536 114.196 89.7129 114.196 85.7153C114.196 81.7177 110.956 78.4771 106.958 78.4771C102.96 78.4771 99.7197 81.7177 99.7197 85.7153C99.7197 89.7129 102.96 92.9536 106.958 92.9536Z" fill="#F79784"/>
<path d="M137.783 79.942C136.313 79.9545 134.873 79.5188 133.657 78.693C132.44 77.8672 131.504 76.6904 130.972 75.3193C130.441 73.9482 130.34 72.4478 130.683 71.0178C131.025 69.5878 131.795 68.296 132.89 67.3145C133.363 68.3743 133.86 69.4228 134.378 70.4601C135.908 73.4646 137.052 76.6505 137.783 79.942Z" fill="#F79784"/>
<path d="M125.212 70.8326C125.697 72.0164 126.802 72.6703 127.659 72.3095C128.168 72.265 128.651 72.0604 129.037 71.725C129.423 71.3896 129.693 70.9407 129.809 70.4425C129.924 69.9442 129.879 69.4222 129.68 68.9511C129.481 68.4799 129.138 68.0839 128.7 67.8195C128.262 67.5552 127.752 67.4361 127.242 67.4794C126.733 67.5226 126.25 67.726 125.863 68.0604C125.476 68.3947 125.204 68.8429 125.088 69.3409C124.971 69.8388 125.014 70.3609 125.212 70.8326Z" fill="#282E3E"/>
<path d="M113.357 77.667C114.3 77.2736 114.628 75.9112 114.091 74.6241C113.553 73.337 112.354 72.6125 111.411 73.0059C110.469 73.3993 110.141 74.7617 110.678 76.0488C111.215 77.3359 112.415 78.0604 113.357 77.667Z" fill="#282E3E"/>
<path d="M123.295 85.1396C123.318 85.6016 123.318 86.0645 123.295 86.5264C123.295 88.7813 122.776 92.9304 119.461 92.6936C115.684 92.4456 114.061 88.1161 113.621 86.6955L113.497 86.2446L123.295 85.1396Z" fill="#282E3E"/>
<path d="M123.295 85.1396C123.318 85.6016 123.318 86.0645 123.295 86.5264C119.912 87.2593 113.756 86.7407 113.756 86.7407H113.621L113.497 86.2896L123.295 85.1396Z" fill="white"/>
<path d="M110.081 65.9732C110.081 65.9732 105.921 65.9168 104.951 72.7379" stroke="#282E3E" stroke-width="1.48637" stroke-miterlimit="10"/>
<path d="M122.821 75.9728C122.821 75.9728 125.403 75.5782 125.595 77.1002C125.657 77.545 125.605 77.9982 125.446 78.418C125.286 78.8377 125.023 79.2104 124.682 79.5017" stroke="#282E3E" stroke-width="1.48637" stroke-miterlimit="10"/>
<path d="M96.1718 89.3145C97.9237 85.5351 95.5336 80.705 90.8334 78.5262C86.1331 76.3474 80.9026 77.645 79.1507 81.4244C77.3987 85.2038 79.7888 90.0338 84.4891 92.2126C89.1893 94.3914 94.4198 93.0939 96.1718 89.3145Z" fill="#FFB7A4"/>
<path d="M90.0461 85.5575C89.0518 84.6051 87.8317 83.9212 86.5004 83.5701C85.1691 83.219 83.7703 83.2123 82.4357 83.5507C81.7367 83.7198 81.9397 84.836 82.65 84.6781C83.7902 84.3777 84.9881 84.3711 86.1316 84.6589C87.2751 84.9468 88.327 85.5197 89.1892 86.3242C89.7191 86.8203 90.576 86.0762 90.0461 85.5801V85.5575Z" fill="#282E3E"/>
<path d="M89.8662 118.716C92.7219 121.368 96.1082 123.383 99.8011 124.629C103.494 125.875 107.409 126.323 111.288 125.943C124.31 124.488 126.238 115.795 126.238 115.795" stroke="#282E3E" stroke-width="1.48637" stroke-miterlimit="10"/>
</g>
</svg>

<svg xmlns="http://www.w3.org/2000/svg" width="244" height="150" fill="none" viewBox="0 0 244 150">
  <path fill="#89EDA3" d="M0 0h199v150H0z"/>
  <mask id="a" width="210" height="129" x="34" y="21" maskUnits="userSpaceOnUse" style="mask-type:alpha">
    <path fill="#F4E7D0" d="M244 21H34.429v128.023H244V21Z"/>
  </mask>
  <g mask="url(#a)">
    <path fill="#FFB7A4" d="M216.142 132.843s10.147-15.886 6.471-21.783a8.866 8.866 0 0 0-1.578-1.307 4.225 4.225 0 0 1-1.646-1.906c-.35-.812-.88-1.668-1.601-1.849-2.706-.71-3.067-2.954-4.95-2.954-1.533 0 6.483-16.02 2.943-16.731-3.54-.71-9.786 15.435-9.786 15.435s-3.124 5.366-6.303 7.892c-4.78 3.72-6.9 15.784-6.9 15.784l7.543 10.271 15.807-2.852Z"/>
    <path fill="#BF643A" d="M215.792 121.544c2.322 0 5.479-4.194 6.122-5.084a.506.506 0 0 0-.135-.666.51.51 0 0 0-.699.113c-1.545 2.142-4.285 5.006-5.514 4.656-.496-.146-.834-.947-.924-2.254a.488.488 0 0 0-.177-.339.48.48 0 0 0-.171-.092.467.467 0 0 0-.193-.02.481.481 0 0 0-.451.53c.135 1.837.676 2.863 1.646 3.145.164.024.331.027.496.011Z"/>
    <path fill="#BF643A" d="M211.473 120.305c2.165 0 4.837-3.518 7.667-7.227a.509.509 0 0 0-.273-.786.497.497 0 0 0-.373.049.49.49 0 0 0-.144.128c-2.491 3.281-5.332 6.99-6.956 6.832a.889.889 0 0 1-.744-.653c-.44-1.128-.135-4.127 3.709-8.332a.498.498 0 0 0-.056-.675.497.497 0 0 0-.677.009c-3.901 4.262-4.509 7.701-3.912 9.358a1.894 1.894 0 0 0 1.579 1.286l.18.011Z"/>
    <path fill="#BF643A" d="M206.321 119.28c1.06 0 1.86-.834 3.303-2.334l.699-.733a.494.494 0 0 0-.355-.844.509.509 0 0 0-.355.145l-.71.733c-1.736 1.815-2.187 2.255-3.067 1.939a.585.585 0 0 1-.282-.406c-.361-1.127.147-4.972 4.724-11.082a.495.495 0 0 0-.789-.598c-4.51 6.009-5.434 10.215-4.882 11.985a1.48 1.48 0 0 0 .913 1.037c.256.098.527.151.801.158Z"/>
    <path fill="#FFB7A4" d="M202.984 106.392c-.812-3.382-1.736-9.9-2.548-13.236-.203-.823-.519-1.782-1.319-2.03a1.637 1.637 0 0 0-1.748.767 4.85 4.85 0 0 0-.631 1.95c-1.128 6.912-1.613 17.059-1.973 24.038l8.219-11.489Z"/>
    <path fill="#FC9B02" d="m51.95 232.115-8.096-73.16c7.554-20.554 8.93-35.222 27.06-43.34 12.052-5.412 21.883-5.186 25.379-6.246l10.981-.575c.473-.372 13.687 4.51 26.033 9.234l1.218.496c14.814 6.235 18.242 15.491 17.926 32.256l-2.029 81.256-98.472.079Z"/>
    <path fill="#FC9B02" d="M143.984 113.36c16.991 6.279 31.682 40.588 31.682 40.588l17.735-33.249 22.887 12.188s-20.621 50.871-24.071 54.794c-7.453 8.468-19.167 9.02-28.773 4.037-11.139-5.762-14.657-15.864-19.167-26.698-7.407-17.577-18.095-34.14-25.514-51.706-.113-.259 1.342-4.104 1.229-4.363a71.874 71.874 0 0 1 23.992 4.409Z"/>
    <path stroke="#282E3E" stroke-miterlimit="10" stroke-width="1.486" d="m67.554 142.518 3.314 81.086c-1.195.564-.97.778-.71.778a.49.49 0 0 0 .445-.327.494.494 0 0 0 .029-.191m78.178-77.311-.564 25.514"/>
    <path fill="#FFB7A4" d="m123.295 85.704-1.669 21.704c0 .282 0 .541-.09.801a12.403 12.403 0 0 1-13.248 10.654l-2.424-.192a12.386 12.386 0 0 1-4.69-1.288 12.388 12.388 0 0 1-6.224-7.23 12.406 12.406 0 0 1-.575-4.831l1.67-21.715 27.25 2.097Z"/>
    <path fill="#282E3E" d="m123.07 88.837-1.454 18.457c0 .236-2.841 1.127-6.088.428-9.189-2.12-14.849-11.105-14.173-20.553l21.715 1.668Z"/>
    <path fill="#FFB7A4" d="M121.83 102.965c-14.657.755-32.865-10.204-35.65-24.624a26.292 26.292 0 0 1 18.659-30.69c18.784-5.411 22.47 7.374 28.051 19.686.474 1.06.97 2.108 1.489 3.146a40.047 40.047 0 0 1 3.382 9.46c2.841 13.224-3.924 22.402-15.931 23.022Z"/>
    <path fill="#713D2F" d="M129.608 42.037a9.117 9.117 0 0 0 .925-4.002 9.238 9.238 0 0 0-7.43-9.072 9.234 9.234 0 0 0-10.339 5.532l-1.454-.62c-10.835-4.172-25.808-4.296-30.577 9.335a7.092 7.092 0 0 0-6.066 7.013 6.47 6.47 0 0 0 0 .812 10.024 10.024 0 0 0 .136 18.264 7.103 7.103 0 0 0 5.885 11.083h.338c.451.7.925 1.398 1.398 2.097l6.968-.518c-.767-11.06.428-21.05 9.132-26.901 0 0 10.294 9.177 19.9-.136 2.39 2.165 7.644.936 8.625-.789 2.83.079 6.449-7.238 2.559-12.098Z"/>
    <path fill="#F79784" d="M106.958 92.954a7.238 7.238 0 0 0 7.238-7.239 7.238 7.238 0 1 0-7.238 7.238Zm30.825-13.012a7.236 7.236 0 0 1-7.1-8.924 7.233 7.233 0 0 1 2.207-3.704c.473 1.06.97 2.109 1.488 3.146a40.011 40.011 0 0 1 3.405 9.482Z"/>
    <path fill="#282E3E" d="M125.212 70.833c.485 1.183 1.59 1.837 2.447 1.477a2.424 2.424 0 1 0-2.447-1.477Zm-11.855 6.834c.943-.393 1.271-1.756.734-3.043-.538-1.287-1.737-2.011-2.68-1.618-.942.393-1.27 1.756-.733 3.043.537 1.287 1.737 2.011 2.679 1.618Zm9.938 7.473c.023.462.023.924 0 1.386 0 2.255-.519 6.404-3.834 6.168-3.777-.248-5.4-4.578-5.84-5.999l-.124-.45 9.798-1.105Z"/>
    <path fill="#fff" d="M123.295 85.14c.023.462.023.924 0 1.386-3.383.733-9.539.215-9.539.215h-.135l-.124-.451 9.798-1.15Z"/>
    <path stroke="#282E3E" stroke-miterlimit="10" stroke-width="1.486" d="M110.081 65.973s-4.16-.056-5.13 6.765m17.87 3.235s2.582-.395 2.774 1.127a2.678 2.678 0 0 1-.913 2.402"/>
    <path fill="#FFB7A4" d="M96.172 89.314c1.752-3.779-.638-8.609-5.339-10.788-4.7-2.179-9.93-.881-11.682 2.898-1.752 3.78.638 8.61 5.338 10.789 4.7 2.178 9.93.88 11.683-2.898Z"/>
    <path fill="#282E3E" d="M90.046 85.558a8.119 8.119 0 0 0-7.61-2.007c-.7.169-.496 1.285.214 1.127a6.98 6.98 0 0 1 6.54 1.646c.53.496 1.386-.248.856-.744v-.022Z"/>
    <path stroke="#282E3E" stroke-miterlimit="10" stroke-width="1.486" d="M89.866 118.716a27.535 27.535 0 0 0 21.422 7.227c13.022-1.455 14.95-10.148 14.95-10.148"/>
  </g>
</svg>
